static/images/github_logo.svg

<svg fill="none" height="14" viewBox="0 0 15 14" width="15" xmlns="http://www.w3.org/2000/svg"><path d="m7.18624.00000059c-3.97041-.0015625-7.18624 3.12655941-7.18624 6.98749941 0 3.0531 2.0117 5.6484 4.8133 6.6016.3773.0922.3195-.1688.3195-.3469v-1.211c-2.17867.2485-2.26697-1.1546-2.41308-1.389-.29541-.4906-.9938-.6156-.78509-.85001.4961-.24844 1.00184.0625 1.58785.90471.42385.6109 1.25068.5078 1.66972.4062.09152-.3672.28739-.6953.55711-.95-2.25734-.39373-3.19816-1.73435-3.19816-3.3281 0-.77344.26169-1.48437.77546-2.05781-.32753-.94531.0305-1.75469.07867-1.875.93279-.08125 1.90252.65 1.97798.70781.52981-.13906 1.13509-.2125 1.81261-.2125.68074 0 1.28762.07656 1.82225.21719.18142-.13438 1.08048-.7625 1.94748-.68594.0466.12031.3966.91094.0883 1.84375.5202.575.7851 1.29219.7851 2.06719 0 1.59687-.9473 2.93906-3.21102 3.32651.1939.1856.34786.4069.45288.6511.10503.2441.15902.5062.15882.7708v1.7578c.01284.1407 0 .2797.24082.2797 2.8434-.9328 4.8904-3.5468 4.8904-6.62654 0-3.8625-3.2175-6.98905941-7.18466-6.98905941z" fill="#4a4a55"/></svg>

<svg width="15" height="14" viewBox="0 0 15 14" fill="none" xmlns="http://www.w3.org/2000/svg">
<path d="M7.18624 5.85097e-07C3.21583 -0.00156191 0 3.12656 0 6.9875C0 10.0406 2.0117 12.6359 4.8133 13.5891C5.1906 13.6813 5.1328 13.4203 5.1328 13.2422V12.0312C2.95413 12.2797 2.86583 10.8766 2.71972 10.6422C2.42431 10.1516 1.72592 10.0266 1.93463 9.79219C2.43073 9.54375 2.93647 9.85469 3.52248 10.6969C3.94633 11.3078 4.77316 11.2047 5.1922 11.1031C5.28372 10.7359 5.47959 10.4078 5.74931 10.1531C3.49197 9.75937 2.55115 8.41875 2.55115 6.825C2.55115 6.05156 2.81284 5.34063 3.32661 4.76719C2.99908 3.82188 3.35711 3.0125 3.40528 2.89219C4.33807 2.81094 5.3078 3.54219 5.38326 3.6C5.91307 3.46094 6.51835 3.3875 7.19587 3.3875C7.87661 3.3875 8.48349 3.46406 9.01812 3.60469C9.19954 3.47031 10.0986 2.84219 10.9656 2.91875C11.0122 3.03906 11.3622 3.82969 11.0539 4.7625C11.5741 5.3375 11.839 6.05469 11.839 6.82969C11.839 8.42656 10.8917 9.76875 8.62798 10.1562C8.82188 10.3418 8.97584 10.5631 9.08086 10.8073C9.18589 11.0514 9.23988 11.3135 9.23968 11.5781V13.3359C9.25252 13.4766 9.23968 13.6156 9.4805 13.6156C12.3239 12.6828 14.3709 10.0688 14.3709 6.98906C14.3709 3.12656 11.1534 5.85097e-07 7.18624 5.85097e-07Z" fill="#4A4A55"/>
</svg>
